X: 13053
T: Finlay M. MacRae
R: jig
M: 6/8
K: Amixolydian
z4|:"A5"e>dB"G5"A2A|"A5"a>geg2a|"G5"e>dB G>GG|"Em"g>ed e<gd|
"A5"e>dB"G5"A2A|"A5"a>geg2a|"G5"e>de e<gG|"A5"A3{B}A2!invisible!|1 B<d:|2 e<g||
|:"A"a>ega2g|A>ag e>dd|"G"e<ge"G"d2B|G>AB "Em"B>GG|
"A"a>eg a2g|A>ag e>dd|"Em"e<ge "G5"d>Be|"A5"A3{B}A2 !invisible!|1 e<g:|2 "A5"A3||

